localPackages/DesignSystem/Sources/DesignSystem/Resources/Assets.xcassets/IconSet/ic-question-circle-filled.imageset/ic-question-circle-filled.svg

<svg width="24" height="24" viewBox="0 0 24 24" fill="none" xmlns="http://www.w3.org/2000/svg">
<g id="ic-question-circle-filled">
<path id="Icon" fill-rule="evenodd" clip-rule="evenodd" d="M12 22.5C17.799 22.5 22.5 17.799 22.5 12C22.5 6.20101 17.799 1.5 12 1.5C6.20101 1.5 1.5 6.20101 1.5 12C1.5 17.799 6.20101 22.5 12 22.5ZM12 7.72266C10.7574 7.72266 9.75 8.73002 9.75 9.97266C9.75 10.3869 9.41421 10.7227 9 10.7227C8.58579 10.7227 8.25 10.3869 8.25 9.97266C8.25 7.90159 9.92893 6.22266 12 6.22266H12.2222C14.1706 6.22266 15.75 7.8021 15.75 9.75043C15.75 10.5985 15.3507 11.3971 14.6722 11.906L13.65 12.6727C13.0834 13.0976 12.75 13.7645 12.75 14.4727C12.75 14.8869 12.4142 15.2227 12 15.2227C11.5858 15.2227 11.25 14.8869 11.25 14.4727C11.25 13.2923 11.8057 12.1809 12.75 11.4727L13.7722 10.706C14.073 10.4804 14.25 10.1264 14.25 9.75043C14.25 8.63052 13.3421 7.72266 12.2222 7.72266H12ZM11.25 17.25C11.25 16.8358 11.5858 16.5 12 16.5H12.0146C12.4289 16.5 12.7646 16.8358 12.7646 17.25C12.7646 17.6642 12.4289 18 12.0146 18H12C11.5858 18 11.25 17.6642 11.25 17.25Z" fill="#0F0F0F"/>
</g>
</svg>

<svg xmlns="http://www.w3.org/2000/svg" width="24" height="24" viewBox="0 0 24 24">
  <g class="ic-question-circle-filled">
    <path fill-rule="evenodd" d="M12 22.5c5.799 0 10.5-4.701 10.5-10.5S17.799 1.5 12 1.5 1.5 6.201 1.5 12 6.201 22.5 12 22.5Zm0-14.777a2.25 2.25 0 0 0-2.25 2.25.75.75 0 1 1-1.5 0A3.75 3.75 0 0 1 12 6.223h.222A3.528 3.528 0 0 1 15.75 9.75c0 .848-.4 1.647-1.078 2.156l-1.022.767a2.25 2.25 0 0 0-.9 1.8.75.75 0 0 1-1.5 0 3.75 3.75 0 0 1 1.5-3l1.022-.767c.301-.226.478-.58.478-.956 0-1.12-.908-2.027-2.028-2.027H12Zm-.75 9.527a.75.75 0 0 1 .75-.75h.015a.75.75 0 1 1 0 1.5H12a.75.75 0 0 1-.75-.75Z" class="Icon"/>
  </g>
</svg>
